X:062
T:Duke of Perth,The, aka TS.062
T:Reel,untitled in MS TS.062
M:2/4
L:1/8
Q:1/2=100
S:Thomas Sands’ MS,1810,Lincolnshire
R:reel
C:Pencil note “Bonum” in MS
O:England;Lincolnshire
Z:vmp.Ruairidh Greig, 2011
K:D
F|DFAF|dFAF|dFAF|eE E>F|DFAF|dFAF|GEAG|FD D:|
|:A|dedB|efec|dedB|fB B>c|dedB|efec|dBAG|FD “cr.in ms”D:|]

